!!!COM: Bach, Johann Sebastian
!!!CDT: 1685/3//-1750/7/28/
!!!OTL@@DE: Komm, Gott Schoepfer, heiliger Geist
!!!AGN: 4-Part Chorale
!!!SCT: BH 187
!!!SCT: BWV 370
**harm	**root	**kern	**kern	**kern	**kern
!	!	!bass	!tenor	!alto	!soprno
*	*Iorgan	*Iorgan	*Iorgan	*Iorgan	*Iorgan
*M4/4	*M4/4	*M4/4	*M4/4	*M4/4	*M4/4
*met(c)	*met(c)	*met(c)	*met(c)	*met(c)	*met(c)
*MM60	*MM60	*MM60	*MM60	*MM60	*MM60
*k[f#c#]	*k[f#c#]	*k[f#c#]	*k[f#c#]	*k[f#c#]	*k[f#c#]
*A:	*A:	*A:	*A:	*A:	*A:
I	4GG	4A	4c#	8e	4a
.	.	.	.	8f#	.
=1	=1	=1	=1	=1	=1
-VII	4FF	4G	4d	[4g	4b
IV	4CC	4D	4d	8g]	4a
.	.	.	.	[8f#	.
v	4DD	4E	4B	8f#]	4g
.	.	.	.	16e	.
.	.	.	.	16d	.
vi	4EE	4F#	8A	8c#	4a
.	.	.	16d	[8f#	.
.	.	.	16c#	.	.
=2	=2	=2	=2	=2	=2
ii	8AA	4BB	8d	8f#]	4dd
-VIIb	8FF	.	8g	8d	.
I	4GG	4AA	4c#	8a	4ee
.	.	.	.	8g	.
IV;	4CC;	4D;	4A;	4f#;	4dd;
-VII	4FF	4G	4B	8d	4dd
.	.	.	.	8e	.
=3	=3	=3	=3	=3	=3
vi	4EE	4F#	8c#	4f#	4a
.	.	.	8d	.	.
iiiob	4BB	4E	4e	4g	4cc#
IV	4CC	4.D	4f#	4a	4dd
I	4GG	.	[4e	4a	4ee
.	.	8C#	.	.	.
=4	=4	=4	=4	=4	=4
IV	4CC	4D	8e]	[4a	4ff#
.	.	.	16d	.	.
.	.	.	16c#	.	.
IV	8CC	4DD	8d	8a]	4ff#
vii7c	8FF#	.	8B	8g#	.
I;	4GG;	4AA;	4c#;	4a;	4ee;
I	4GG	4A	4c#	4a	4ee
!!linebreak: 2
=5	=5	=5	=5	=5	=5
IV	4CC	4D	8d	4a	8ff#
.	.	.	8c#	.	8ee
IVb	4CC	4F#	4d	[4a	4dd
-VII	4FF	4G	4d	8a]	4b
.	.	.	.	[8g	.
IV	4CC	4d	4d	8g]	4a
.	.	.	.	8f#	.
=6	=6	=6	=6	=6	=6
I	4GG	8A	4e	4a	4cc#
.	.	8G	.	.	.
vii/v	4CC#	4F#	4f#	4a	4dd#
v;	4DD;	4E;	4g;	4b;	4ee;
vi	4EE	4F#	4c#	4f#	4a
=7	=7	=7	=7	=7	=7
ii	4AA	8BB	4B	8f#	4dd
.	.	8C#	.	8e	.
iib	4AA	4D	4B	[4f#	4b
v	8DD	4E	8B	8f#]	4g
-IIIb	8BB-	.	8c	16e	.
.	.	.	.	16f#	.
-VIIb	4FF	4BB	4d	[4g	4b
=8	=8	=8	=8	=8	=8
I7b	4GG	4C#	[4e	4g]	2a
IV	4CC	4D	8e]	4f#	.
.	.	.	[8d	.	.
I;	4GG;	4AA;	8d]	4e;	4a;
.	.	.	8c#;	.	.
==	==	==	==	==	==
*-	*-	*-	*-	*-	*-
!!chor2scor: -l 2 -s 0.6 -o %b.pmx
!!!YEC: Copyright 1994, David Huron
!!!YEC: Changes/Additions 2001 by Craig Stuart Sapp
!!!YEN: United States of America
!!!SMA: 371 Bach Chorales, edited by Ludwig Erk, C.F. Peters
!!!PDT: 1850, 1865
!!!ONB: Harmony and Root analysis done manually
!!!ONB: Actual key is G Mixolydian 
